X:458
T:Reel 458
M:4/4
K:Amaj
L:1/8
E,|A,CB,A, G,E,B,E,E,D,|C,E,A,G, A,B,CA,|B,E,E,F, G,F,G,A,|B,EFG AFEC|B,E,E,F, G,E,E,G,|C,E,A,C B,CB,A,|B,EEF  (3EFG FE|CA,B,G, A,2|G,A,|B,EEF GEFD|B,CDB, CA,A,C|B,E,EF B,EFD|B,EED B,2CA,|B,E,E,F, G,A,G,A,|B,EEG F2EC|A,2B,D CEAF|GEFG AFEC|D|E2EC A,B,CA,|B,E,E,E, E,F,E,=C,|CEFE AGAF|EDCB, A,
